icons/poi_plane.svg

<svg width="16" height="16" xmlns="http://www.w3.org/2000/svg">
 <path style="fill:#4e008e;stroke-width:1.63299;stroke-linecap:square;fill-opacity:1" d="M 8 0 A 1 2 0 0 0 7 2 L 7 5.5722656 L 1 9 L 1 10 L 7 9.1425781 L 7 13.666016 L 5 15 L 5 16 L 8 15 L 11 16 L 11 15 L 9 13.666016 L 9 9.1425781 L 15 10 L 15 9 L 9 5.5722656 L 9 2 A 1 2 0 0 0 8 0 z"/>
</svg>

<svg width="16" height="16" xmlns="http://www.w3.org/2000/svg"><path style="fill:#4e008e;stroke-width:1.63299;stroke-linecap:square;fill-opacity:1" d="M8 0a1 2 0 0 0-1 2v3.572L1 9v1l6-.857v4.523L5 15v1l3-1 3 1v-1l-2-1.334V9.143L15 10V9L9 5.572V2a1 2 0 0 0-1-2z"/></svg>
